storage/app/icons/phosphoricons/thin/dice-five-thin.svg

<svg xmlns="http://www.w3.org/2000/svg" fill="currentColor" viewBox="0 0 256 256"><path d="M192 36H64a28 28 0 0 0-28 28v128a28 28 0 0 0 28 28h128a28 28 0 0 0 28-28V64a28 28 0 0 0-28-28m20 156a20 20 0 0 1-20 20H64a20 20 0 0 1-20-20V64a20 20 0 0 1 20-20h128a20 20 0 0 1 20 20ZM100 92a8 8 0 1 1-8-8 8 8 0 0 1 8 8m36 36a8 8 0 1 1-8-8 8 8 0 0 1 8 8m36-36a8 8 0 1 1-8-8 8 8 0 0 1 8 8m-72 72a8 8 0 1 1-8-8 8 8 0 0 1 8 8m72 0a8 8 0 1 1-8-8 8 8 0 0 1 8 8"/></svg>

<svg xmlns="http://www.w3.org/2000/svg" viewBox="0 0 256 256" fill="currentColor"><path d="M192,36H64A28,28,0,0,0,36,64V192a28,28,0,0,0,28,28H192a28,28,0,0,0,28-28V64A28,28,0,0,0,192,36Zm20,156a20,20,0,0,1-20,20H64a20,20,0,0,1-20-20V64A20,20,0,0,1,64,44H192a20,20,0,0,1,20,20ZM100,92a8,8,0,1,1-8-8A8,8,0,0,1,100,92Zm36,36a8,8,0,1,1-8-8A8,8,0,0,1,136,128Zm36-36a8,8,0,1,1-8-8A8,8,0,0,1,172,92Zm-72,72a8,8,0,1,1-8-8A8,8,0,0,1,100,164Zm72,0a8,8,0,1,1-8-8A8,8,0,0,1,172,164Z"/></svg>
